assets/svg/charger_icon.svg

<svg fill="none" height="151" viewBox="0 0 147 151" width="147" xmlns="http://www.w3.org/2000/svg"><g fill="#7200a6"><path d="m48.3545 33.5918c1.5431 0 2.7938 1.2507 2.7938 2.7938v16.7628c0 1.5432-1.2507 2.7938-2.7938 2.7938h-16.7628c-1.5432 0-2.7938-1.2507-2.7938-2.7938v-16.7628c0-1.5432 1.2506-2.7938 2.7938-2.7938z"/><path d="m62.326 33.5918c-1.5431 0-2.7938 1.2507-2.7938 2.7938v16.7628c0 1.5432 1.2507 2.7938 2.7938 2.7938h16.7628c1.5432 0 2.7938-1.2507 2.7938-2.7938v-16.7628c0-1.5432-1.2506-2.7938-2.7938-2.7938z"/><path d="m48.3545 64.3262c1.5431 0 2.7938 1.2506 2.7938 2.7938v16.7628c0 1.5431-1.2507 2.7938-2.7938 2.7938h-16.7628c-1.5432 0-2.7938-1.2507-2.7938-2.7938v-16.7628c0-1.5432 1.2506-2.7938 2.7938-2.7938z"/><path d="m62.326 64.3262c-1.5431 0-2.7938 1.2506-2.7938 2.7938v16.7628c0 1.5431 1.2507 2.7938 2.7938 2.7938h16.7628c1.5432 0 2.7938-1.2507 2.7938-2.7938v-16.7628c0-1.5432-1.2506-2.7938-2.7938-2.7938z"/><path clip-rule="evenodd" d="m62.326 95.0576c-1.5431 0-2.7938 1.2507-2.7938 2.7938v16.7626c0 1.543 1.2507 2.794 2.7938 2.794h16.7628c1.5432 0 2.7938-1.251 2.7938-2.794v-16.7626c0-1.5431-1.2506-2.7938-2.7938-2.7938zm8.3814 8.3814c-1.5431 0-2.7938 1.251-2.7938 2.794s1.2507 2.794 2.7938 2.794c1.5432 0 2.7938-1.251 2.7938-2.794s-1.2506-2.794-2.7938-2.794z" fill-rule="evenodd"/><path clip-rule="evenodd" d="m48.3545 95.0576c1.5431 0 2.7938 1.2507 2.7938 2.7938v16.7626c0 1.543-1.2507 2.794-2.7938 2.794h-16.7628c-1.5432 0-2.7938-1.251-2.7938-2.794v-16.7626c0-1.5431 1.2506-2.7938 2.7938-2.7938zm-8.3814 8.3814c1.5431 0 2.7938 1.251 2.7938 2.794s-1.2507 2.794-2.7938 2.794c-1.5432 0-2.7938-1.251-2.7938-2.794s1.2506-2.794 2.7938-2.794z" fill-rule="evenodd"/><path d="m79.0863 125.788c1.5431 0 2.7938 1.251 2.7938 2.794v2.794c0 1.543-1.2507 2.793-2.7938 2.793h-47.4946c-1.5432 0-2.7938-1.25-2.7938-2.793v-2.794c0-1.543 1.2506-2.794 2.7938-2.794z"/><path clip-rule="evenodd" d="m98.6391 19.6239c0-1.5432-1.2507-2.7938-2.7938-2.7938h-81.0202c-1.5432 0-2.7939 1.2506-2.7939 2.7938v128.5151c0 1.543 1.2507 2.794 2.7939 2.794h81.0202c1.5431 0 2.7938-1.251 2.7938-2.794zm-11.1752 5.5876c1.5431 0 2.7938 1.2506 2.7938 2.7938v111.7517c0 1.543-1.2507 2.794-2.7938 2.794h-64.2574c-1.5432 0-2.7938-1.251-2.7938-2.794v-111.7517c0-1.5432 1.2506-2.7938 2.7938-2.7938z" fill-rule="evenodd"/><path d="m3.65318.0673828c-1.54316 0-2.793805 1.2506572-2.793805 2.7937972v2.7938c0 1.54316 1.250655 2.7938 2.793805 2.7938h100.57682c1.543 0 2.794 1.25066 2.794 2.79382v136.8964c0 1.543 1.25 2.794 2.794 2.794h2.793c1.544 0 2.794-1.251 2.794-2.794v-145.27782c0-1.54315-1.25-2.7937972-2.794-2.7937972z"/><path clip-rule="evenodd" d="m140.552 16.8301h-25.144v39.1132h25.144c3.087 0 5.588-2.5013 5.588-5.5876v-27.938c0-3.0858-2.501-5.5876-5.588-5.5876zm-12.928 8.4125c-.271-.1031-.566.0601-.644.3564l-3.171 11.9391c-.091.3405.148.6794.478.6794h4.832c.318 0 .554.3154.486.6482l-1.541 7.4941c-.1.4873.154.9778.593 1.1454.45.1708.947-.0541 1.146-.519l5.116-11.9037c.152-.353-.089-.7562-.452-.7562h-4.912c-.343 0-.583-.3613-.471-.7072l2.084-6.4678c.089-.2767-.047-.579-.304-.6766z" fill-rule="evenodd"/></g></svg>

<svg width="147" height="151" viewBox="0 0 147 151" fill="none" xmlns="http://www.w3.org/2000/svg">
<path d="M48.3545 33.5918C49.8976 33.5918 51.1483 34.8425 51.1483 36.3856V53.1484C51.1483 54.6916 49.8976 55.9422 48.3545 55.9422H31.5917C30.0485 55.9422 28.7979 54.6915 28.7979 53.1484V36.3856C28.7979 34.8424 30.0485 33.5918 31.5917 33.5918H48.3545Z" fill="#7200A6"/>
<path d="M62.326 33.5918C60.7829 33.5918 59.5322 34.8425 59.5322 36.3856V53.1484C59.5322 54.6916 60.7829 55.9422 62.326 55.9422H79.0888C80.632 55.9422 81.8826 54.6915 81.8826 53.1484V36.3856C81.8826 34.8424 80.632 33.5918 79.0888 33.5918H62.326Z" fill="#7200A6"/>
<path d="M48.3545 64.3262C49.8976 64.3262 51.1483 65.5768 51.1483 67.12V83.8828C51.1483 85.4259 49.8976 86.6766 48.3545 86.6766H31.5917C30.0485 86.6766 28.7979 85.4259 28.7979 83.8828V67.12C28.7979 65.5768 30.0485 64.3262 31.5917 64.3262H48.3545Z" fill="#7200A6"/>
<path d="M62.326 64.3262C60.7829 64.3262 59.5322 65.5768 59.5322 67.12V83.8828C59.5322 85.4259 60.7829 86.6766 62.326 86.6766H79.0888C80.632 86.6766 81.8826 85.4259 81.8826 83.8828V67.12C81.8826 65.5768 80.632 64.3262 79.0888 64.3262H62.326Z" fill="#7200A6"/>
<path fill-rule="evenodd" clip-rule="evenodd" d="M62.326 95.0576C60.7829 95.0576 59.5322 96.3083 59.5322 97.8514V114.614C59.5322 116.157 60.7829 117.408 62.326 117.408H79.0888C80.632 117.408 81.8826 116.157 81.8826 114.614V97.8514C81.8826 96.3083 80.632 95.0576 79.0888 95.0576H62.326ZM70.7074 103.439C69.1643 103.439 67.9136 104.69 67.9136 106.233C67.9136 107.776 69.1643 109.027 70.7074 109.027C72.2506 109.027 73.5012 107.776 73.5012 106.233C73.5012 104.69 72.2506 103.439 70.7074 103.439Z" fill="#7200A6"/>
<path fill-rule="evenodd" clip-rule="evenodd" d="M48.3545 95.0576C49.8976 95.0576 51.1483 96.3083 51.1483 97.8514V114.614C51.1483 116.157 49.8976 117.408 48.3545 117.408H31.5917C30.0485 117.408 28.7979 116.157 28.7979 114.614V97.8514C28.7979 96.3083 30.0485 95.0576 31.5917 95.0576H48.3545ZM39.9731 103.439C41.5162 103.439 42.7669 104.69 42.7669 106.233C42.7669 107.776 41.5162 109.027 39.9731 109.027C38.4299 109.027 37.1793 107.776 37.1793 106.233C37.1793 104.69 38.4299 103.439 39.9731 103.439Z" fill="#7200A6"/>
<path d="M79.0863 125.788C80.6294 125.788 81.8801 127.039 81.8801 128.582V131.376C81.8801 132.919 80.6294 134.169 79.0863 134.169H31.5917C30.0485 134.169 28.7979 132.919 28.7979 131.376V128.582C28.7979 127.039 30.0485 125.788 31.5917 125.788H79.0863Z" fill="#7200A6"/>
<path fill-rule="evenodd" clip-rule="evenodd" d="M98.6391 19.6239C98.6391 18.0807 97.3884 16.8301 95.8453 16.8301H14.8251C13.2819 16.8301 12.0312 18.0807 12.0312 19.6239V148.139C12.0312 149.682 13.2819 150.933 14.8251 150.933H95.8453C97.3884 150.933 98.6391 149.682 98.6391 148.139V19.6239ZM87.4639 25.2115C89.007 25.2115 90.2577 26.4621 90.2577 28.0053V139.757C90.2577 141.3 89.007 142.551 87.4639 142.551H23.2065C21.6633 142.551 20.4127 141.3 20.4127 139.757V28.0053C20.4127 26.4621 21.6633 25.2115 23.2065 25.2115H87.4639Z" fill="#7200A6"/>
<path d="M3.65318 0.0673828C2.11002 0.0673828 0.859375 1.31804 0.859375 2.86118V5.65498C0.859375 7.19814 2.11003 8.44878 3.65318 8.44878H104.23C105.773 8.44878 107.024 9.69944 107.024 11.2426V148.139C107.024 149.682 108.274 150.933 109.818 150.933H112.611C114.155 150.933 115.405 149.682 115.405 148.139V2.86118C115.405 1.31803 114.155 0.0673828 112.611 0.0673828H3.65318Z" fill="#7200A6"/>
<path fill-rule="evenodd" clip-rule="evenodd" d="M140.552 16.8301H115.408V55.9433H140.552C143.639 55.9433 146.14 53.442 146.14 50.3557V22.4177C146.14 19.3319 143.639 16.8301 140.552 16.8301ZM127.624 25.2426C127.353 25.1395 127.058 25.3027 126.98 25.599L123.809 37.5381C123.718 37.8786 123.957 38.2175 124.287 38.2175H129.119C129.437 38.2175 129.673 38.5329 129.605 38.8657L128.064 46.3598C127.964 46.8471 128.218 47.3376 128.657 47.5052C129.107 47.676 129.604 47.4511 129.803 46.9862L134.919 35.0825C135.071 34.7295 134.83 34.3263 134.467 34.3263H129.555C129.212 34.3263 128.972 33.965 129.084 33.6191L131.168 27.1513C131.257 26.8746 131.121 26.5723 130.864 26.4747L127.624 25.2426Z" fill="#7200A6"/>
</svg>
